assets/img/icon/social-networks/facebook.svg

<svg fill="none" height="16" viewBox="0 0 9 16" width="9" xmlns="http://www.w3.org/2000/svg"><path d="m8.03125 9 .4375-2.875h-2.78125v-1.875c0-.8125.375-1.5625 1.625-1.5625h1.28125v-2.46875s-1.15625-.21875-2.25-.21875c-2.28125 0-3.78125 1.40625-3.78125 3.90625v2.21875h-2.5625v2.875h2.5625v7h3.125v-7z" fill="#353132" fill-opacity=".6"/></svg>

<svg width="9" height="16" viewBox="0 0 9 16" fill="none" xmlns="http://www.w3.org/2000/svg">
<path d="M8.03125 9L8.46875 6.125H5.6875V4.25C5.6875 3.4375 6.0625 2.6875 7.3125 2.6875H8.59375V0.21875C8.59375 0.21875 7.4375 0 6.34375 0C4.0625 0 2.5625 1.40625 2.5625 3.90625V6.125H0V9H2.5625V16H5.6875V9H8.03125Z" fill="#353132" fill-opacity="0.6"/>
</svg>
